icons/jss.svg

<?xml version="1.0" encoding="UTF-8"?>
<svg width="256px" height="203px" viewBox="0 0 256 203" version="1.1" xmlns="http://www.w3.org/2000/svg" xmlns:xlink="http://www.w3.org/1999/xlink">
    <title>Group</title>
    <g stroke="none" stroke-width="1" fill="none" fill-rule="evenodd">
        <g fill-rule="nonzero">
            <polygon fill="#F7DF1E" points="1.85263158 1.83333333 202.947368 1.83333333 202.947368 200.833333 1.85263158 200.833333"></polygon>
            <path d="M204.8,202.666667 L0,202.666667 L0,0 L204.8,0 L204.8,202.666667 Z M3.8464,198.837333 L200.951467,198.837333 L200.951467,3.82933333 L3.8464,3.82933333 L3.8464,198.837333 Z" fill="#EEEEEE"></path>
            <path d="M137.160533,158.024533 C141.220267,164.654933 146.5024,169.527467 155.8464,169.527467 C163.694933,169.527467 168.708267,165.604267 168.708267,160.1856 C168.708267,153.691733 163.5584,151.389867 154.9184,147.611733 L150.184533,145.5808 C136.516267,139.758933 127.4368,132.462933 127.4368,117.041067 C127.4368,102.8352 138.2592,92.0213333 155.176533,92.0213333 C167.2192,92.0213333 175.8784,96.2133333 182.116267,107.1872 L167.3664,116.657067 C164.119467,110.833067 160.616533,108.539733 155.176533,108.539733 C149.627733,108.539733 146.112,112.059733 146.112,116.657067 C146.112,122.338133 149.632,124.64 157.757867,128.16 L162.493867,130.1888 C178.587733,137.090133 187.6736,144.125867 187.6736,159.944533 C187.6736,176.996267 174.2784,186.340267 156.285867,186.340267 C138.6944,186.340267 127.330133,177.9584 121.768533,166.971733 C121.768533,166.967467 137.160533,158.024533 137.160533,158.024533 L137.160533,158.024533 Z M205.489067,158.024533 C209.5488,164.654933 214.830933,169.527467 224.174933,169.527467 C232.023467,169.527467 237.0368,165.604267 237.0368,160.1856 C237.0368,153.691733 231.886933,151.389867 223.246933,147.611733 L218.513067,145.5808 C204.8448,139.758933 195.765333,132.462933 195.765333,117.041067 C195.765333,102.8352 206.587733,92.0213333 223.505067,92.0213333 C235.547733,92.0213333 244.206933,96.2133333 250.4448,107.1872 L235.694933,116.657067 C232.448,110.833067 228.945067,108.539733 223.505067,108.539733 C217.956267,108.539733 214.440533,112.059733 214.440533,116.657067 C214.440533,122.338133 217.960533,124.64 226.0864,128.16 L230.8224,130.1888 C246.914133,137.088 256,144.123733 256,159.9424 C256,176.994133 242.6048,186.338133 224.612267,186.338133 C207.0208,186.338133 195.656533,177.956267 190.094933,166.9696 L205.489067,158.024533 L205.489067,158.024533 Z M70.2506667,159.6672 C73.2266667,164.9472 75.9338667,169.410133 82.4405333,169.410133 C88.6634667,169.410133 92.5888,166.976 92.5888,157.508267 L92.5888,93.1008 L111.528533,93.1008 L111.528533,157.762133 C111.528533,177.373867 100.029867,186.301867 83.2448,186.301867 C68.0789333,186.301867 59.296,178.453333 54.8288,169.000533 L70.2506667,159.6672 C70.2506667,159.665067 70.2506667,159.6672 70.2506667,159.6672 L70.2506667,159.6672 Z" fill="#000000"></path>
        </g>
    </g>
</svg>

<svg xmlns="http://www.w3.org/2000/svg" viewBox="0 0 256 202.667">
  <g fill="none" fill-rule="nonzero">
    <path fill="#f7df1e" d="M202.947 200.833H1.853v-199h201.094z"/>
    <path fill="#eee" d="M204.8 202.667H0V0h204.8zm-200.954-3.83h197.105V3.83H3.846z"/>
    <path fill="#000" d="M137.16 158.025c4.06 6.63 9.342 11.502 18.686 11.502 7.849 0 12.862-3.923 12.862-9.341 0-6.494-5.15-8.796-13.79-12.574l-4.733-2.031c-13.669-5.822-22.748-13.118-22.748-28.54 0-14.206 10.822-25.02 27.74-25.02 12.042 0 20.701 4.192 26.94 15.166l-14.75 9.47c-3.248-5.824-6.75-8.117-12.19-8.117-5.55 0-9.065 3.52-9.065 8.117 0 5.681 3.52 7.983 11.646 11.503l4.736 2.029c16.094 6.901 25.18 13.937 25.18 29.756 0 17.051-13.396 26.395-31.388 26.395-17.592 0-28.956-8.382-34.517-19.368 0-.004 15.392-8.947 15.392-8.947zm68.33 0c4.059 6.63 9.34 11.502 18.685 11.502 7.848 0 12.862-3.923 12.862-9.341 0-6.494-5.15-8.796-13.79-12.574l-4.734-2.031c-13.668-5.822-22.748-13.118-22.748-28.54 0-14.206 10.823-25.02 27.74-25.02 12.043 0 20.702 4.192 26.94 15.166l-14.75 9.47c-3.247-5.824-6.75-8.117-12.19-8.117-5.549 0-9.064 3.52-9.064 8.117 0 5.681 3.52 7.983 11.645 11.503l4.736 2.029C246.914 137.088 256 144.124 256 159.942c0 17.052-13.395 26.396-31.388 26.396-17.591 0-28.955-8.382-34.517-19.368zm-135.24 1.642c2.977 5.28 5.684 9.743 12.19 9.743 6.223 0 10.149-2.434 10.149-11.902V93.101h18.94v64.661c0 19.612-11.5 28.54-28.284 28.54-15.166 0-23.949-7.849-28.416-17.301l15.422-9.334c0-.002 0 0 0 0z"/>
  </g>
</svg>
